!!!COM: Mozart, Wolfgang Amadeus
!!!OTL: Adagio and Fugue in C Minor for string quartet
!!!OMD: Fugue
!!!OMV: 2
!!!SCT1: K<sup>1</sup> 546
!!!SCA: Chronologisch-thematisches Verzeichnis sämtlicher Tonwerke Wolfgang Amade Mozarts (L. von Köchel; 1862, 2/1905, 3/1937, 1947)
!!!SCT2: K<sup>6</sup> 546
!!!YOR: Breitkopf & Härtel Edition
!!!ENC: Frances Bennion
!!!CDT: 1756/1/27/-1791/12/5/
!!!OCY: Österreich
!!!YEC: Copyright (c) 1994, 2000 Center for Computer Assisted Research in the Humanities
!!!YEM: Rights to all derivative editions reserved.
!!!YEM: Refer to licensing agreement for further details.
!!!YEN: United States of America
**kern	**kern	**kern	**kern
*k[b-e-a-]	*k[b-e-a-]	*k[b-e-a-]	*k[b-e-a-]
*c:	*c:	*c:	*c:
*clefC	*clefF	*clefG	*clefG
*M4/4	*M4/4	*M4/4	*M4/4
4G 4GG	1r	1r	1r
4G 4GG	.	.	.
4C 4CC	.	.	.
16D	.	.	.
16E-	.	.	.
16F	.	.	.
16G	.	.	.
=2	=2	=2	=2
4A-	1r	1r	1r
4A-	.	.	.
4BB	.	.	.
8r	.	.	.
8A-	.	.	.
=3	=3	=3	=3
8F#	1r	1r	1r
8G	.	.	.
8r	.	.	.
8F	.	.	.
8D	.	.	.
8E-	.	.	.
8C#	.	.	.
8D	.	.	.
=4	=4	=4	=4
8BB	4c	1r	1r
8C	.	.	.
8r	4c	.	.
16CC	.	.	.
16DD	.	.	.
4EE-	4G	.	.
4CC	16A	.	.
.	16B	.	.
.	16c	.	.
.	16d	.	.
=5	=5	=5	=5
8r	4e-	1r	1r
8C	.	.	.
8C	4e-	.	.
8C	.	.	.
4.C	4F#	.	.
.	8r	.	.
16BB	8e-	.	.
16C	.	.	.
=6	=6	=6	=6
4BB-	8c#	1r	1r
.	8d	.	.
4AA	8r	.	.
.	8c	.	.
4GG	8A	.	.
.	8B-	.	.
[4FF	8G#	.	.
.	8A	.	.
=7	=7	=7	=7
8FF]	8F#	4g	1r
16EE	8G	.	.
16DD	.	.	.
8EE	8r	4g	.
8CC	16F	.	.
.	16G	.	.
8r	4A-	4c	.
16F	.	.	.
16E-	.	.	.
8D	4F	16d	.
.	.	16e-	.
8C	.	16f	.
.	.	16g	.
=8	=8	=8	=8
4BB	8r	4a-	1r
.	8f	.	.
4D	8f	4a-	.
.	8f	.	.
4G	4.f	4B	.
4r	.	8r	.
.	16e	8a-	.
.	16f	.	.
=9	=9	=9	=9
8r	4e-	8f#	1r
8GG	.	8g	.
8AA	4.d	8r	.
8BB	.	8f	.
8C	.	8d	.
8AA-	4c	8e-	.
8FF	.	8c#	.
8GG	8B	8d	.
=10	=10	=10	=10
4EE-	4g	8B	4cc
.	.	8c	.
4CC	4e-	8r	4cc
.	.	16c	.
.	.	16d	.
2r	8r	4e-	4g
.	16c	.	.
.	16B-	.	.
.	8A	4c	16a
.	.	.	16b
.	8G	.	16cc
.	.	.	16dd
=11	=11	=11	=11
8r	4F#	8r	4ee-
16AA	.	8c	.
16GG	.	.	.
8FF#	4A	8c	4ee-
8EE	.	8c	.
8DD	4d	4.c	4f#
8D	.	.	.
8E	4r	.	8r
8F#	.	16B	8ee-
.	.	16c	.
=12	=12	=12	=12
4G	8r	4B-	8cc#
.	8d	.	8dd
2.r	8e	4A	8r
.	8f#	.	8cc
.	8g	8G	8a
.	8e-	4g	8b-
.	8c	.	8g#
.	8d	[8f	8a
=13	=13	=13	=13
1r	8e-	8f]	8f#
.	8c	4e-	8g
.	8A	.	8f
.	8B	8d	4ff
.	8c	4.g	.
.	8G	.	8ee
.	[4c	.	4ee-
.	.	8f#	.
=14	=14	=14	=14
4G 4GG	4c]	[2g	4.dd
4G 4GG	8B	.	.
.	16A	.	16cc
.	16B	.	16dd
4C 4CC	4c	8g]	4ee-
.	.	16g	.
.	.	16f	.
16D	8r	8e-	4cc
16E-	.	.	.
16F	[8g	8d	.
16G	.	.	.
=15	=15	=15	=15
4A-	8g]	4c	8r
.	16f	.	8ff
.	16e-	.	.
4A-	8d-	8r	8ff
.	8c	4a-	8ff
4BB	4.d	.	4.ff
.	.	16g	.
.	.	16f#	.
8r	.	8g	.
8A-	16c	8b	16ee
.	16d	.	16ff
=16	=16	=16	=16
8F#	8c	8.cc	4.ee-
8G	8c	.	.
.	.	16b-	.
8r	8f	4a-	.
8F	16B	.	4dd
.	16d	.	.
8D	8e-	4g	.
8E-	16A-	.	4cc
.	16c	.	.
8C#	8F	4f	.
8D	16A-	.	8b
.	16G	.	.
=17	=17	=17	=17
4C	8G	4e-	8cc
.	16e-	.	16cc
.	16f	.	16dd
4.r	8g	8r	8ee-
.	8e-	8c	8g
.	8f	16cc	4.a-
.	.	16b-	.
16F	16A-	16a-	.
16G	16B-	16g	.
8A-	8c	16f	.
.	.	16e-	.
8C	8E-	16d	16g
.	.	16c	16a-
=18	=18	=18	=18
4.BB-	8D	16ff	8B-
.	.	16ee-	.
.	16f	16dd	16dd
.	16g	16cc	16ee-
.	8a-	16b-	8ff
.	.	16a-	.
16AA	8d	16g	8a-
16BB-	.	16f	.
8EE-	8e-	16g	4.g
.	.	16f	.
16C	16E-	16e-	.
16D	16F	16d	.
8E-	8G	16c	.
.	.	16B-	.
8GG	8B-	16A-	16f
.	.	16G	16g
=19	=19	=19	=19
8.AA-	4F	8c	8c
.	.	16A-	16f
32GG	.	16c	16a-
32AA-	.	.	.
8.AA	4r	8f	8cc
.	.	8c	8e-
32GG	.	.	.
32AA	.	.	.
2BB-	4B-	8B-	8d
.	.	8a-	8cc
.	4B-	8g	8b-
.	.	8f	8a-
=20	=20	=20	=20
1BB-	4E-	8e-	8g
.	.	8b-	8gg
.	16F	8a-	8ff
.	16G	.	.
.	16A-	8g	8ee-
.	16B-	.	.
.	4c	8f	8dd
.	.	8e-	8cc
.	4c	8d	8b-
.	.	8e-	8a
=21	=21	=21	=21
2BB-	4D	8a-	8ff
.	.	8f	16dd
.	.	.	16b-
.	8r	8r	4.a-
.	8c	8e-	.
2BB-	8A	8c#	.
.	8B-	8d	8g
.	8r	8r	8gg
.	8A-	8cc	[8ff
=22	=22	=22	=22
4BB-	8F#	8a	8ff]
.	8G	8b-	4ee-
4.BB-	8E	8g	.
.	8F	8a-	8dd-
.	8E	8g	4ccc 4cc
8B-	8c	8e	.
8A-	8d	8f	4ccc
8G	8e	8g	.
=23	=23	=23	=23
8F	8f	8a-	4ff
8E-	8c	8a	.
8D-	8d-	8b-	16gg
.	.	.	16aa
8C	8A	8e-	16bb-
.	.	.	16ccc
8BB-	8B-	8d-	4ddd-
8AA-	8f	8b-	.
8GG	8e	8b-	4ddd-
8BB-	8f	8b-	.
=24	=24	=24	=24
8CC	4g	4.b-	4ee
8d-	.	.	.
8B	4e	.	8r
8c	.	16a	8ddd-
.	.	16b-	.
8r	4f	8g	8bb
8A-	.	8a-	8ccc
8F#	8r	8ee-	8r
8G	8G	8dd	8bb-
=25	=25	=25	=25
8r	8e	8dd-	8gg
8F	8f	8cc	8aa-
8D	8r	4r	8ff#
8E-	4c	.	8gg
8C#	.	4dd	8ee#
8D	16.B-	.	8ff#
.	32A	.	.
8r	8B-	4dd	8r
8C	8A	.	8f#
=26	=26	=26	=26
8AA	8e-	4g	8cc
8BB-	8d	.	8b-
8GG#	8r	16a	4.r
.	.	16b-	.
8AA	8c	16cc	.
.	.	16dd	.
8FF#	8A	4ee-	.
8GG	8B-	.	8g
4r	8F#	4ee-	8a
.	8G	.	8b-
=27	=27	=27	=27
8r	8G#	4f#	8b
8E-	8A	.	8cc
8C#	8r	8r	8r
8D	8c	8ee-	8ff#
8r	8A	8cc#	4gg
8B-	8B-	8dd	.
8G	8r	8b	8r
8A-	8e-	8cc	8f#
=28	=28	=28	=28
8F#	4d	8a	8cc
8G	.	8b-	8b-
8E	8d-	8r	8gg
8F	8B-	8dd-	8bb-
8D#	4G	8b	4bb-
8E	.	8cc	.
4r	8r	8a	8cc
.	8g	8b-	8r
=29	=29	=29	=29
1r	8e	8g	8r
.	8f	8a-	8cc
.	8d	8r	8ff
.	8e-	8cc-	8aa-
.	8c#	8a	4aa-
.	8d	8b-	.
.	4r	8g	8b-
.	.	8a-	[8ff
=30	=30	=30	=30
4E-	1r	8f#	8ff]
.	.	8g	4ee-
4E-	.	2.r	.
.	.	.	4dd-
4AA-	.	.	.
.	.	.	4cc
16BB-	.	.	.
16C	.	.	.
16D-	.	.	[8b-
16E-	.	.	.
=31	=31	=31	=31
4F	1r	8r	8b-]
.	.	8d-	4a-
4F	.	8d-	.
.	.	8d-	4dd-
4GG	.	4.d-	.
.	.	.	4cc
4r	.	.	.
.	.	16c	[8b-
.	.	16d-	.
=32	=32	=32	=32
4G-	2r	8c	8b-]
.	.	8e-	4a
4G-	.	8e-	.
.	.	8e-	4ee-
4AA	4f	4.e-	.
.	.	.	4dd-
4r	4f	.	.
.	.	16d-	[8cc
.	.	16e-	.
=33	=33	=33	=33
2r	4B-	8d-	8cc]
.	.	4d-	8f
.	16c	.	4b-
.	16d-	.	.
.	16e-	4c	.
.	16f	.	.
8r	4g-	.	2r
8E-	.	4B-	.
8E-	4g-	.	.
8E-	.	[8e-	.
=34	=34	=34	=34
4.E-	4A	8e-]	1r
.	.	4d-	.
.	4r	.	.
16D	.	4c	.
16E-	.	.	.
8D	4a-	.	.
8F	.	4B	.
8F	4a-	.	.
8F	.	[8f	.
=35	=35	=35	=35
4.F	4B	8f]	2r
.	.	4e-	.
.	2.r	.	.
16E-	.	8d	.
16F	.	.	.
8E-	.	8g	4cc
8F	.	8a-	.
8E-	.	8g	4cc
8D	.	8f	.
=36	=36	=36	=36
8C	4c	8e-	4gg
8BB-	.	8d	.
4AA-	4c	8c	16ff
.	.	.	16ee-
.	.	16B	16dd
.	.	16c	16cc
4GG	4g	4d	4b
4r	16f	4r	4b
.	16e-	.	.
.	16d	.	.
.	16c	.	.
=37	=37	=37	=37
4FF	4B	4d	4aa-
4.FF	4B	4.d	8r
.	.	.	8b
.	4a-	.	8dd
8F	.	8d	8cc
8E-	8r	8g	8r
8D	8B	8f	8dd
=38	=38	=38	=38
4C	8d	8b	8ff
.	8c	8cc	8ee-
2.r	8r	2.r	8gg
.	8d	.	8ff
.	8f	.	8aa-
.	8e-	.	8gg
.	8g	.	8r
.	8f	.	8aa-
=39	=39	=39	=39
4GG	8a-	2r	8cc
.	8g	.	8b
4GG	8r	.	4.r
.	8a-	.	.
4D	8c	4g	.
.	8B	.	8g
16C	8r	4g	8cc#
16BB-	.	.	.
16AA	[8B-	.	8dd
16GG	.	.	.
=40	=40	=40	=40
4FF#	8B-]	4dd	8r
.	8A	.	8a
4FF#	8r	16cc	8dd
.	.	16b-	.
.	8A	16a	8ee-
.	.	16g	.
4E-	8d	4f#	8r
.	8c	.	8a
8r	8r	4f#	8dd
8FF#	8A	.	8cc
=41	=41	=41	=41
8AA	8c	4ee-	8r
8GG	8B-	.	8e-
8r	8r	8r	8g
8AA	8c	8f#	8f#
8C	8e-	8a	8r
8BB-	8d	8g	8g
8D	8f	8r	8b-
8C	8e-	8a	8a
=42	=42	=42	=42
8E-	8r	8cc	8g
8D	8D	8b	8f
2.r	8F	8dd	8a-
.	8E-	8cc	8g
.	8G	8ee-	8b-
.	8F	8dd	8a-
.	8A-	8ff	8cc
.	8G	8ee	8b-
=43	=43	=43	=43
1r	8B-	8gg	8dd-
.	8A-	8ff	8cc
.	8c	[4gg-	8ee-
.	8B-	.	8dd-
.	8d-	16gg-]	8g
.	.	16ff	.
.	8c	16ee-	8a-
.	.	16dd-	.
.	[4e-	16cc	4r
.	.	16b-	.
.	.	16a-	.
.	.	16g-	.
=44	=44	=44	=44
2r	8e-]	4.f	1r
.	8A-	.	.
.	4.d-	.	.
.	.	8g-	.
4A-	.	[2e-	.
.	8B-	.	.
4A-	8c	.	.
.	8A-	.	.
=45	=45	=45	=45
4D-	[2f	8e-]	4aa-
.	.	8A-	.
16E-	.	4.d-	4aa-
16F	.	.	.
16G-	.	.	.
16A-	.	.	.
4B-	8f]	.	4dd-
.	8f	8a-	.
4B-	8e-	8g-	16ee-
.	.	.	16ff
.	8d-	8f	16gg-
.	.	.	16aa-
=46	=46	=46	=46
4C	8c	8e-	4bb-
.	8d-	8f	.
16D-	4.e-	4.g-	4bb-
16E-	.	.	.
16F	.	.	.
16G-	.	.	.
4A-	.	.	4cc
.	8g-	8b-	.
4A-	8f	8a-	16dd-
.	.	.	16ee-
.	8e-	8g-	16ff
.	.	.	16gg-
=47	=47	=47	=47
4BB-	8d	8f	4aa-
.	8e-	8e-	.
16C	4.f	8d	4aa-
16D	.	.	.
16E-	.	8B-	.
16F	.	.	.
4G-	.	4b-	4b-
.	4e-	.	.
4F	.	4b-	16cc
.	.	.	16dd
.	8d	.	16ee-
.	.	.	16ff
=48	=48	=48	=48
4E-	4e-	4e-	8gg-
.	.	.	8b-
2.r	4e-	16f	4.bb-
.	.	16g-	.
.	.	16a-	.
.	.	16b-	.
.	4A-	4cc-	.
.	.	.	16ccc-
.	.	.	16bb-
.	16B-	4cc-	[4aa-
.	16c-	.	.
.	16d-	.	.
.	16e-	.	.
=49	=49	=49	=49
1r	4f	4d-	8aa-]
.	.	.	8a-
.	4f	16e-	4.aa-
.	.	16f	.
.	.	16g-	.
.	.	16a-	.
.	4G-	4b-	.
.	.	.	16bb-
.	.	.	16aa-
.	16A-	4b-	[4gg-
.	16B-	.	.
.	16c-	.	.
.	16d-	.	.
=50	=50	=50	=50
1r	4e-	4c	8gg-]
.	.	.	8g-
.	4e-	16d-	4.gg-
.	.	16e-	.
.	.	16f	.
.	.	16g-	.
.	4F	4a-	.
.	.	.	16aa-
.	.	.	16gg-
.	16G	4a-	[4ff
.	16A-	.	.
.	16B-	.	.
.	16c	.	.
=51	=51	=51	=51
2r	4.d	4B	8ff]
.	.	.	8f
.	.	16c	4.ff
.	.	16d	.
.	8c	16e-	.
.	.	16f	.
4G 4GG	8B	2g	.
.	4c	.	8ee-
4G 4GG	.	.	8.dd
.	8B	.	.
.	.	.	32cc
.	.	.	32dd
=52	=52	=52	=52
4C 4CC	8c	4e-	4cc
.	8G	.	.
16D	4.g	8r	2.r
16E-	.	.	.
16F	.	8c	.
16G	.	.	.
4A-	.	4.cc	.
.	16f	.	.
.	16e-	.	.
4A-	[4f	.	.
.	.	16b	.
.	.	16cc	.
=53	=53	=53	=53
4BB	8f]	16dd	4g
.	.	16cc	.
.	8d	16b	.
.	.	16a	.
8r	4B	4g	4g
8A-	.	.	.
8F#	8B-	2r	4dd
8G	8G	.	.
8r	[4d	.	16cc
.	.	.	16b-
8F	.	.	16a
.	.	.	16g
=54	=54	=54	=54
8D	8d]	1r	4f#
8E-	8c	.	.
8C#	8A	.	4f#
8D	8B-	.	.
8BB	8G	.	4ee-
8C	8F#	.	.
8CC	4e-	.	8r
8C	.	.	8f#
=55	=55	=55	=55
4BB-	8d	1r	8a
.	8d	.	8g
4FF#	8d	.	8r
.	8d	.	8a
4GG	4.d	.	8cc
.	.	.	8b-
4FF	.	.	8cc
.	16c	.	8b
.	16d	.	.
=56	=56	=56	=56
8EE-	8G	1r	8dd
8G	8e-	.	8cc
8G	8c	.	8r
8G	8B	.	8dd
4.G	8d	.	8ff
.	4c	.	8ee-
.	.	.	8ff
16F	8d-	.	8ee
16G	.	.	.
=57	=57	=57	=57
4A-	4c	4cc	8gg
.	.	.	8ff
4E	2.r	4cc	8aa-
.	.	.	8gg
[4F	.	4f	8bb-
.	.	.	8aa-
16F]	.	16g	4r
16E-	.	16a-	.
16D-	.	16b-	.
16C	.	16cc	.
=58	=58	=58	=58
4BB-	4F	4dd-	8r
.	.	.	8bb-
2.r	4F	4dd-	8bb-
.	.	.	8bb-
.	4c	4e	4.bb-
.	16B-	8r	.
.	16A-	.	.
.	16G	8dd-	16aa-
.	16F	.	16bb-
=59	=59	=59	=59
8r	4E	8b	4gg
8BB-	.	8cc	.
8BB-	4E	8r	2.r
8BB-	.	8b-	.
4.BB-	4d-	8g	.
.	.	8a-	.
.	8r	8f#	.
16AA	8E	8g	.
16BB-	.	.	.
=60	=60	=60	=60
4AA-	8G	8e	4ccc
.	8F	8f	.
4EE	8r	4r	4ccc
.	8G	.	.
4FF	8B-	4cc	8.ff
.	8A-	.	.
.	.	.	16gg
4EE-	8c	4cc	16aa
.	.	.	16bb-
.	8B-	.	16ccc
.	.	.	16ddd
=61	=61	=61	=61
4DD	8d	8.f#	4eee-
.	8c	.	.
.	.	16g	.
4r	2.r	16a	4eee-
.	.	16b-	.
.	.	16cc	.
.	.	16dd	.
8.c	.	4ee-	4ff#
16B-	.	.	.
16A	.	4ee-	4r
16G	.	.	.
16F#	.	.	.
16E	.	.	.
=62	=62	=62	=62
4D	4d	4f#	8.aa
.	.	.	16gg
4r	4d	2.r	16ff#
.	.	.	16ee-
.	.	.	16dd
.	.	.	16cc
4G 4GG	16G	.	4b
.	16A	.	.
.	16B	.	.
.	16c	.	.
4G	16d	.	4r
.	16e-	.	.
.	16f	.	.
.	16g	.	.
=63	=63	=63	=63
8.BB	4a-	2r	2r
16C	.	.	.
16D	4a-	.	.
16E	.	.	.
16F	.	.	.
16G	.	.	.
4A-	4B	16d	16b
.	.	16e-	16cc
.	.	16f	16dd
.	.	16g	16ee-
8G	8r	16a	16ff
.	.	16b	16gg
8F	8a-	16cc	16aa-
.	.	16dd	16bb-
=64	=64	=64	=64
4E-	8f#	8ee-	4ccc
.	8g	8gg	.
4BB	8r	8gg	2.r
.	8f	8gg	.
4C	8d	4.gg	.
.	8e-	.	.
4FF	8c#	.	.
.	8d	16ff#	.
.	.	16gg	.
=65	=65	=65	=65
4EE-	8B	4g	8r
.	8c	.	8ccc
8r	2.r	4e	8ccc
8B-	.	.	8ccc
8G	.	4f	4.ccc
8A-	.	.	.
8F#	.	4b-	.
8G	.	.	16bb
.	.	.	16ccc
=66	=66	=66	=66
8E	4r	4a-	4cc
8F	.	.	.
8F	4A	8r	2.r
8F	.	8ee-	.
4.F	4B-	8cc#	.
.	.	8dd	.
.	4e-	8b	.
16E	.	8cc	.
16F	.	.	.
=67	=67	=67	=67
4BB-	8d	8a	4.r
.	8B-	8b-	.
2.r	8B-	4d	.
.	8B-	.	8aa-
.	4.B-	4e-	8ff#
.	.	.	8gg
.	.	4a-	8ee
.	16A	.	8ff
.	16B-	.	.
=68	=68	=68	=68
8r	4E-	4g	8dd
8GG	.	.	8ee-
8GG	8A	4.e-	8r
8GG	8B-	.	8dd-
8.AA-	8G	.	8b
.	8A-	8e-	8cc
32GG	.	.	.
32AA-	.	.	.
8.GG-	8r	8e-	8a
.	8B-	8e	8b-
32FF	.	.	.
32GG-	.	.	.
=69	=69	=69	=69
8FF	8B	4.f	8g#
8FF	8c	.	8a
8AA	8B	.	8r
8AA	8c	16e	8ee-
.	.	16f	.
8.BB-	8A	8f	8cc#
.	8B-	8f	8dd
32AA	.	.	.
32BB-	.	.	.
8.AA-	8r	8f	8b
.	8c	8f#	8cc
32GG	.	.	.
32AA-	.	.	.
=70	=70	=70	=70
8GG	8c#	4.g	8a#
8GG	8d	.	8b
8BB	8r	.	2.r
8BB	8f	16f#	.
.	.	16g	.
8.C	8d	8g	.
.	8e-	8g	.
32BB	.	.	.
32C	.	.	.
8.BB-	8c#	8g	.
.	8d	8g	.
32AA	.	.	.
32BB-	.	.	.
=71	=71	=71	=71
2.AA	8B	4.g	8r
.	4c	.	8cc
.	.	.	8dd
.	8B-	16f#	8ee
.	.	16g	.
.	8A	8c	8.ff
.	8c	8ee-	.
.	.	.	32ee
.	.	.	32ff
4AA-	8B	8dd	8.ff#
.	8c	8cc	.
.	.	.	32ee
.	.	.	32ff#
=72	=72	=72	=72
8GG	8d	4b	4gg
8G	8G	.	.
8F	8A	2.r	2.r
8D	8B	.	.
8.E-	8.c	.	.
32D	32B	.	.
32C	32c	.	.
8.BB	8.d	.	.
32AA-	32c	.	.
32GG	32d	.	.
=73	=73	=73	=73
4C	4e-	4c	4gg
4r	4r	4c	4gg
4E-	4G	4g	4cc
4r	4r	16f	16dd
.	.	16e-	16ee-
.	.	16d	16ff
.	.	16c	16gg
=74	=74	=74	=74
8r	8r	4B	4aa-
8F	8d	.	.
8F	8d	4B	4aa-
8F	8d	.	.
4.F	4.d	4a-	4b
.	.	8r	8r
16E-	16c	8B	8aa-
16F	16d	.	.
=75	=75	=75	=75
4E-	8G	8d	8ff#
.	8G	8c	8gg
2.r	8A	8r	8r
.	8B	8d	8ff
.	8d	8f	8dd
.	8c	8e-	8ee-
.	8e-	8g	8cc#
.	8d	8f	8dd
=76	=76	=76	=76
8r	8f	8a-	8b
8C	8e	8g	8cc
8C	8g	8b-	4.cc
8C	8f	8a-	.
4.C	4e	4g	.
.	.	.	8dd-
.	4r	4e	8cc
16BB	.	.	8b-
16C	.	.	.
=77	=77	=77	=77
4FF	4c	4f	4a-
4FF	4c	4.a-	4.aa-
4C	4F	.	.
.	.	16b-	16gg
.	.	16cc	16ff
16BB-	16G	16dd-	16ee
16AA-	16A-	16cc	16ff
16GG	16B-	16b-	16gg
16FF	16c	16a-	16aa-
=78	=78	=78	=78
4EE	4d-	8g	8bb-
.	.	8g	8bb-
4EE	4d-	8g	8bb-
.	.	8g	8bb-
4.D-	4E	4.g	4.bb-
.	4r	.	.
16C	.	16f	16aa-
16BB-	.	16g	16bb-
=79	=79	=79	=79
2AA-	4r	4f	4ccc
.	4.A-	4f	4ccc
2D-	.	4cc	4ff
.	8F	.	.
.	16d-	16b-	16gg
.	16c	16a-	16aa-
.	16B-	16g	16bb-
.	16A-	16f	16ccc
=80	=80	=80	=80
8GG	8B-	4e-	4ddd-
8GG	8B-	.	.
8GG	8B-	4e-	4ddd-
8GG	8B-	.	.
4.GG	4.B-	4dd-	4ee-
.	.	8r	8r
16FF	16A-	8e-	8ddd-
16GG	16B-	.	.
=81	=81	=81	=81
8AA-	8c	8g-	8bb
8AA-	8c	8f	8ccc
8.AA	8.c	8r	8r
.	.	8f	8eee-
32GG	32B	.	.
32AA	32c	.	.
8BB-	8d	8a-	8ccc#
8BB-	8d	8g	8ddd
8.BB	8.d	8r	8r
.	.	8g	8fff
32AA	32c	.	.
32BB	32d	.	.
=82	=82	=82	=82
8.C	8.e-	8b-	8ddd
.	.	8a	8eee-
32BB	32d	.	.
32C	32e-	.	.
8.C#	8.e	8r	8r
.	.	8gg	8bb-
32BB	32d	.	.
32C#	32e	.	.
4D	4d	8g	8b-
.	.	8f#	8a
4r	4d	4r	4r
=83	=83	=83	=83
1r	4G	4dd	1r
.	16A	4dd	.
.	16B-	.	.
.	16c	.	.
.	16d	.	.
.	4e-	4g	.
.	4e-	16a	.
.	.	16b-	.
.	.	16cc	.
.	.	16dd	.
=84	=84	=84	=84
2r	4F#	4ee-	1r
.	8r	4ee-	.
.	8e-	.	.
4D	8c#	4f#	.
.	8d	.	.
4D	8r	8r	.
.	8c	8ee-	.
=85	=85	=85	=85
4GG	8A	8cc#	2r
.	8B-	8dd	.
16AA	8r	8r	.
16BB-	.	.	.
16C	8A	8cc	.
16D	.	.	.
4E-	8F#	8a	4gg
.	4G	8b-	.
4E-	.	8cc	4gg
.	8A	8cc#	.
=86	=86	=86	=86
4FF#	8B-	4dd	4ddd
.	8A	.	.
8r	4.r	16ee-	16ccc
.	.	16dd	16bb-
8E-	.	16cc	16aa
.	.	16b-	16gg
8C#	.	4a	4ff#
8D	8d	.	.
4r	16c	[4a	4ff#
.	16B-	.	.
.	16A	.	.
.	16G	.	.
=87	=87	=87	=87
4C	8G	8a]	4eee-
.	8F#	8a	.
4C	8r	8ee-	8r
.	8A	8dd	8ff#
4G	8c	8r	8aa
.	8B-	8g	8gg
16F	4r	8b	8r
16E-	.	.	.
16D	.	8cc	[8gg
16C	.	.	.
=88	=88	=88	=88
4BB	8r	8ee-	8gg]
.	8f	8dd	8aa-
4BB	8f	8r	8r
.	8f	8a-	8ff
4A-	4.f	8e-	8cc
.	.	8d	8b
8r	.	4a-	8r
8BB	16e-	.	8dd
.	16f	.	.
=89	=89	=89	=89
8D	8f	4g	8b
8C	8e-	.	8cc
8r	8c	8r	8ee-
8D	8B	8f	8dd
8F	8r	8a-	8r
8E-	8c	8g	8ee-
8r	8e-	8r	8gg
8F	8d	8a-	8ff
=90	=90	=90	=90
8A-	8r	8cc	8r
8G	8d	4b	8ff
2.r	8f	.	8aa-
.	8B	8ff	4gg
.	4c	8ee-	.
.	.	8g	16ff
.	.	.	16ee-
.	4F	4a-	8dd
.	.	.	8cc
=91	=91	=91	=91
4G 4GG	4G	4d	4b
4G 4GG	2.r	4r	2.r
4C 4CC	.	4g	.
16D	.	4g	.
16E-	.	.	.
16F	.	.	.
16G	.	.	.
=92	=92	=92	=92
4A-	1r	4c	2r
4A-	.	16d	.
.	.	16e-	.
.	.	16f	.
.	.	16g	.
4BB	.	4a-	4dd
8r	.	4a-	4dd
8A-	.	.	.
=93	=93	=93	=93
8F#	4d	4B	4g
8G	.	.	.
8r	4d	8r	16a
.	.	.	16b
8F	.	8a-	16cc
.	.	.	16dd
8D	4G	8f#	4ee-
8E-	.	8g	.
8C#	16A	8e	4ee-
.	16B	.	.
8D	16c	8f	.
.	16d	.	.
=94	=94	=94	=94
8BB	4e-	4A	4f#
8C	.	.	.
8C	4e-	2.r	8r
8C	.	.	8ee-
4.D	4F#	.	8cc#
.	.	.	8dd
.	8r	.	8b
16C#	8e-	.	8cc
16D	.	.	.
=95	=95	=95	=95
4GG	8c#	8r	8a#
.	8d	8g	8b
2.r	8B	8g	8r
.	8c	8g	8aa-
.	8A#	4.g	8ff#
.	8B	.	8gg
.	4r	.	8ee
.	.	16f#	8ff
.	.	16g	.
=96	=96	=96	=96
2r	1r	4c	8dd
.	.	.	8ee-
.	.	4c	2.r
4C 4CC	.	4g	.
4C 4CC	.	16f	.
.	.	16e-	.
.	.	16d	.
.	.	16c	.
=97	=97	=97	=97
4G 4GG	1r	4B	2r
16F	.	4B	.
16E-	.	.	.
16D	.	.	.
16C	.	.	.
4BB	.	4a-	4f
4BB	.	8r	4f
.	.	8B	.
=98	=98	=98	=98
4A-	4F	8d-	4cc
.	.	8c	.
8r	4F	4.cc	16b-
.	.	.	16a-
8BB	.	.	16g
.	.	.	16f
8D-	4c	.	4e
8C	.	16b-	.
.	.	16cc	.
[4C	16B-	16dd-	4e
.	16A-	16cc	.
.	16G	16b-	.
.	16F	16a-	.
=99	=99	=99	=99
8C]	4E	8g	4dd-
16BB-	.	16g	.
16C	.	16a-	.
16D-	4E	16b-	4.r
16C	.	16a-	.
16BB-	.	16g	.
16AA-	.	16f	.
8GG	4d-	4e	.
16GG	.	.	16b-
16AA-	.	.	16cc
16BB-	4r	4e	16dd-
16AA-	.	.	16cc
16GG	.	.	16b-
16FF	.	.	16a-
=100	=100	=100	=100
4EE	8r	4dd-	8g
.	16B-	.	16g
.	16c	.	16a-
4EE	16d-	4.r	16b-
.	16c	.	16a-
.	16B-	.	16g
.	16A-	.	16f
4D-	8G	.	8e
.	8B-	8g	8ee
4r	8d-	8b-	8ee
.	8B-	8g	8ee
=101	=101	=101	=101
4FF#	8r	8r	2r
.	16c	16a	.
.	16d	16b-	.
4FF#	16e-	16cc	.
.	16d	16b-	.
.	16c	16a	.
.	16B-	16g	.
4E-	8A	8f#	8r
.	8c	8ff#	8a
4r	8e-	8ff#	8cc
.	8c	8ff#	8a
=102	=102	=102	=102
4BB	2r	8r	8r
.	.	16f	16dd
.	.	16g	16ee-
4BB	.	16a-	16ff
.	.	16g	16ee-
.	.	16f	16dd
.	.	16e-	16cc
4A-	8r	8d	8b
.	8d	8f	8bb
4r	8f	8a-	8ddd
.	8d	8f	8bb
=103	=103	=103	=103
1r	2r	4g	1r
.	.	4g	.
.	4c	4c	.
.	4c	16d	.
.	.	16e-	.
.	.	16f	.
.	.	16g	.
=104	=104	=104	=104
2r	4F	8a-	4ff
.	.	8f	.
.	16G	8f	4ff
.	16A-	.	.
.	16B-	8f	.
.	16c	.	.
4G 4GG	4d	4.f	4b
4G 4GG	[4d	.	16cc
.	.	.	16dd
.	.	16g	16ee-
.	.	16f	16ff
=105	=105	=105	=105
4C 4CC	8d]	4e	8gg
.	8c	.	8g
16D	8c	4.e-	4.gg
16E-	.	.	.
16F	8c	.	.
16G	.	.	.
4A-	4.c	.	.
.	.	4ee-	4ff#
4A-	.	.	.
.	16B	16dd	8ff
.	16c	16cc	.
=106	=106	=106	=106
4BB	2G	8ff	8ddd
.	.	8dd	8ff
4C	.	8cc	8ee
.	.	8ee	8ccc
4G 4GG	2r	16cc	16ee-
.	.	16ee-	16ccc
.	.	16ee-	16ccc
.	.	16ee-	16ccc
4G 4GG	.	16b	16dd
.	.	16dd	16bb
.	.	16dd	16bb
.	.	16dd	16bb
=107	=107	=107	=107
4C 4CC	4g	16ee-	16gg
.	.	16ccc	16eee-
.	.	16ccc	16eee-
.	.	16ccc	16eee-
16D	4g	16ee-	16gg
16E-	.	16ccc	16eee-
16F	.	16ccc	16eee-
16G	.	16ccc	16eee-
4A-	4c	16ee-	16ff#
.	.	16ff#	16eee-
.	.	16ff#	16eee-
.	.	16ff#	16eee-
4A-	16d	16ee-	16ff#
.	16e-	16ff#	16eee-
.	16f#	16ff#	16eee-
.	16g	16ff#	16eee-
=108	=108	=108	=108
4BB	4a-	16dd	16ff
.	.	16ff	16ddd
.	.	16ff	16ddd
.	.	16ff	16ddd
8r	4a-	16dd	16ff
.	.	16bb	16ddd
8A-	.	16bb	16ddd
.	.	16bb	16ddd
8F#	8f#	16dd	16ee-
.	.	16ee-	16ddd
8G	8g	16cc	16ee-
.	.	16ee-	16ccc
8E	8e	16cc	16dd
.	.	16dd	16ccc
8F	8f	16b	16dd
.	.	16dd	16bb
=109	=109	=109	=109
8D	8d	16g	16cc
.	.	16gg	16ccc
8E-	8e-	16gg	16ccc
.	.	16gg	16ccc
8F	8f	16a-	16cc
.	.	16cc	16aa-
8D	8d	16cc	16aa-
.	.	16cc	16aa-
4G	4g	16e-	16g
.	.	16cc	16ee-
.	.	16cc	16ee-
.	.	16cc	16ee-
4GG	4G	16B	16g
.	.	16b	16dd
.	.	16b	16dd
.	.	16b	16dd
=110	=110	=110	=110
16CC	16G	4cc	4cc
16C	16e-	.	.
16C	16e-	.	.
16C	16e-	.	.
16CC	16G	4r	4cc
16C	16e-	.	.
16C	16e-	.	.
16C	16e-	.	.
16CC	16G	4c	4gg
16C	16e-	.	.
16C	16e-	.	.
16C	16e-	.	.
16CC	16G	4c	16ff
16C	16e-	.	16ee-
16C	16e-	.	16dd
16C	16e-	.	16cc
=111	=111	=111	=111
16DD	16G	4g	4b
16D	16f	.	.
16D	16f	.	.
16D	16f	.	.
16DD	16G	16f	4b
16D	16f	16e-	.
16D	16f	16d	.
16D	16f	16c	.
16DD	16d	4B	4aa-
16D	16f	.	.
16D	16f	.	.
16D	16f	.	.
16DD	16B	4B	8r
16D	16a-	.	.
16D	16a-	.	8b
16D	16a-	.	.
=112	=112	=112	=112
16EE-	8g	8d	8dd
16C	.	.	.
16C	8G	8c	8cc
16C	.	.	.
16FF	4A-	8r	8r
16C	.	.	.
16C	.	8d	8dd
16C	.	.	.
16GG	4G	8f	8ff
16C	.	.	.
16C	.	8e-	8ee-
16C	.	.	.
16GG	4B-	8f	8ff
16D-	.	.	.
16D-	.	8e	8ee
16D-	.	.	.
=113	=113	=113	=113
16AA-	2.c	8g	8gg
16C	.	.	.
16C	.	8f	8ff
16C	.	.	.
16AA	.	8g	8gg
16D	.	.	.
16D	.	8f#	8ff#
16D	.	.	.
16GG	.	8a-	8aa-
16E-	.	.	.
16E-	.	8g	8gg
16E-	.	.	.
16GG	[4G	8r	8r
16F	.	.	.
16F	.	8B	8b
16F	.	.	.
=114	=114	=114	=114
16EE-	4G]	8d	8dd
16C	.	.	.
16C	.	8c	8cc
16C	.	.	.
16FF	4A-	8r	8r
16C	.	.	.
16C	.	8d	8dd
16C	.	.	.
16GG	4G	8f	8ff
16C	.	.	.
16C	.	8e-	8ee-
16C	.	.	.
16GG	4B-	8f	8ff
16D-	.	.	.
16D-	.	8e	8ee
16D-	.	.	.
=115	=115	=115	=115
16AA-	2.c	8g	8gg
16C	.	.	.
16C	.	8f	8ff
16C	.	.	.
16AA	.	8g	8gg
16D	.	.	.
16D	.	8f#	8ff#
16D	.	.	.
16GG	.	8a-	8aa-
16E-	.	.	.
16E-	.	8g	8gg
16E-	.	.	.
16GG	4G	8r	8r
16D	.	.	.
16D	.	8B	8b
16D	.	.	.
=116	=116	=116	=116
4C 4CC	8.E-	8d	8dd
.	.	8c	8cc
.	16c	.	.
16D	16d	4r	4r
16E-	16e-	.	.
16F	16f	.	.
16G	16g	.	.
4A-	4a-	4c	4cc
4A-	4a-	4c	4cc
=117	=117	=117	=117
4BB	4B	4g	4gg
8r	8r	16f	16ff
.	.	16e-	16ee-
8A-	8a-	16d	16dd
.	.	16c	16cc
8F#	8f#	4B	4b
8G	8g	.	.
8r	8r	4B	4b
8G	8g	.	.
=118	=118	=118	=118
8E	8e	4dd 4f 4A-	4aa- 4b 4d
8F	8f	.	.
8.r	8.r	8.r	8.r
16F	16a-	16dd	16ff
4G	4g	4cc	4ee-
4GG	4f 4G	4b 4d 4G	4dd
=119	=119	=119	=119
4CC	4e- 4G 4C	4cc 4e- 4G	4cc 4e- 4G
2.r	2.r	2.r	2.r
==	==	==	==
*-	*-	*-	*-
!!!RWG1: This file contains only pitch and duration data.
!!!RWG2: Transposing instruments are not transposed.
!!!RWG3: Spines may have incompatible meters.
!!!RWG4: Durations of rests and tied notes may be interpreted.
!!!RWG: Key is interpreted using the Humdrum key tool.
!!!AFT: stage1
!!!END: 1997/04/15
!!!KEY: 1129019130
!!!EMD: Converted from MuseData to Humdrum Dec 16, 2000, by Andreas Kornstaedt using muse2kern.
!!!EMD: Manual editing by Craig Sapp, Nov 2001
